picto/break-glass-here-framed.svg

<svg class="color-immutable" width="30" height="30" viewBox="0 0 30 30" fill="none" xmlns="http://www.w3.org/2000/svg"><path d="M30 0H0V30H30V0Z" fill="#237F52"/><path d="M25.5 3C26.325 3 27 3.675 27 4.5V25.5C27 26.325 26.325 27 25.5 27H4.5C3.675 27 3 26.325 3 25.5V4.5C3 3.675 3.675 3 4.5 3H25.5ZM25.5 2.625H4.5C3.46613 2.625 2.625 3.46613 2.625 4.5V25.5C2.625 26.5339 3.46613 27.375 4.5 27.375H25.5C26.5339 27.375 27.375 26.5339 27.375 25.5V4.5C27.375 3.46613 26.5339 2.625 25.5 2.625Z" fill="white"/><path d="M20.9785 15.1826C20.7978 14.9246 20.5838 14.7735 20.5838 14.7735L19.8477 14.3357L18.6594 13.647C18.6081 13.6334 18.5604 13.6267 18.5162 13.6267C18.3874 13.6267 18.2894 13.6837 18.223 13.7897C18.1921 13.8404 18.1743 13.9343 18.172 13.9445C18.1156 14.1979 18.276 14.4968 18.4962 14.6336L19.4548 15.2062L19.753 15.3896L17.6187 19.0969C18.1248 19.4124 18.167 19.4024 18.1776 19.4079C18.379 19.514 18.5766 19.6248 18.7979 19.6251L20.8038 19.6319L23.9999 21.5301V18.1124L22.2661 17.0906C22.2661 17.0907 21.0801 15.3275 20.9785 15.1826Z" fill="white"/><path d="M23.6424 21.5674V22.1964C23.6424 22.3345 23.53 22.447 23.3918 22.447H6.6081C6.46995 22.447 6.35752 22.3345 6.35752 22.1964V9.6081C6.35752 9.47228 6.47228 9.35752 6.6081 9.35752H23.3918C23.53 9.35752 23.6424 9.46995 23.6424 9.6081V17.6528L23.9999 17.8634V9.6081C23.9999 9.27368 23.7263 9 23.3918 9H6.6081C6.27368 9 6 9.27368 6 9.6081V22.1964C6 22.5309 6.27368 22.8045 6.6081 22.8045H23.3918C23.7263 22.8045 23.9999 22.5309 23.9999 22.1964V21.7798L23.8904 21.7147L23.6424 21.5674Z" fill="white"/><path d="M22.2661 17.0907C22.2661 17.0907 21.0801 15.3275 20.9785 15.1826C20.7978 14.9246 20.5838 14.7735 20.5838 14.7735L19.8477 14.3357L18.6594 13.647C18.6081 13.6334 18.5604 13.6267 18.5162 13.6267C18.3874 13.6267 18.2894 13.6837 18.223 13.7897C18.1921 13.8404 18.1743 13.9343 18.172 13.9445C18.1156 14.1979 18.276 14.4968 18.4962 14.6336L19.4548 15.2062L19.753 15.3896L17.6187 19.0969C18.1248 19.4124 18.167 19.4024 18.1776 19.4079C18.379 19.514 18.5766 19.6248 18.7979 19.6251L20.8038 19.6319L23.6424 21.3179L23.9999 21.5302V18.1124L23.6424 17.9017L22.2661 17.0907Z" fill="white"/><path d="M19.8327 14.0789L20.1378 14.2543L20.842 13.0249L22.2594 13.8412L23.1153 12.3572L20.4745 10.8445L18.208 11.5152L19.643 12.3452L18.9447 13.5643L18.9428 13.5676L19.8327 14.0789Z" fill="white"/><path d="M16.7871 19.3456L17.1242 19.5404L17.1244 19.54L16.7871 19.3456Z" fill="white"/><path d="M18.829 15.0794L18.6402 14.9666C18.6651 15.1106 18.6396 15.2609 18.5649 15.3889C18.4762 15.541 18.3264 15.6458 18.1575 15.6823C18.1853 15.7194 18.2103 15.7586 18.2292 15.8017C18.3101 15.9842 18.2985 16.1958 18.1981 16.3679C18.093 16.5482 17.9026 16.6625 17.6955 16.6745C17.6982 16.6805 17.7021 16.686 17.7048 16.6922C17.7852 16.8733 17.7737 17.0845 17.6734 17.2583C17.5674 17.4389 17.3758 17.5533 17.168 17.5645C17.1758 17.5789 17.1846 17.5924 17.1913 17.6075C17.2712 17.7891 17.2595 18.0004 17.1592 18.1739C17.0478 18.3639 16.8417 18.4821 16.6216 18.4821C16.5116 18.4821 16.4029 18.4525 16.3059 18.3956L16.2009 18.3328L15.9111 18.839L16.787 19.3455L17.1243 19.5399L19.4529 15.4558L18.829 15.0794Z" fill="white"/><path d="M11.2971 11.3195H9.0376V10.9611H11.2116L12.5228 10.2978L13.9631 10.6805L13.871 11.0269L12.5627 10.6793L11.2971 11.3195Z" fill="white"/><path d="M17.5497 12.183L16.7531 11.3195H16.0283V10.9611H16.9102L17.8131 11.94L17.5497 12.183Z" fill="white"/><path d="M10.9634 12.3277L10.8293 11.9953L12.3946 11.3642L13.1408 11.6632L13.8972 11.3132L14.0477 11.6385L13.151 12.0533L12.395 11.7504L10.9634 12.3277Z" fill="white"/><path d="M14.188 16.4007L13.5549 14.6749L14.4916 13.467L14.6631 12.1385L15.0186 12.1845L14.8345 13.6096L13.9596 14.7378L14.5245 16.2772L14.188 16.4007Z" fill="white"/><path d="M17.3412 16.5915L17.2345 16.528L17.2222 16.5206L17.0345 16.4077L16.4886 16.0807C16.4218 16.0397 16.3481 16.0202 16.2752 16.0202C16.1382 16.0202 16.0044 16.0892 15.927 16.2148C15.8544 16.3332 15.8492 16.4751 15.9015 16.5935C15.9338 16.6666 15.9879 16.7311 16.0612 16.7762L16.6154 17.1079L16.803 17.2208L16.8289 17.2363L16.9302 17.2966C16.9947 17.3344 17.0654 17.3522 17.1351 17.3522C17.2755 17.3522 17.4123 17.2796 17.4885 17.1499C17.5563 17.0321 17.5599 16.8944 17.5089 16.7791C17.4758 16.7028 17.4183 16.6366 17.3412 16.5915Z" fill="white"/><path d="M17.0642 16.1733L16.8772 16.0606L16.3229 15.7287C16.2495 15.6835 16.1957 15.6197 16.1637 15.5465C16.111 15.4277 16.1156 15.2861 16.189 15.1674C16.2661 15.0421 16.4 14.9729 16.5372 14.9729C16.6101 14.9729 16.6837 14.9924 16.7503 15.0333L17.2966 15.3603L17.4838 15.4727L17.7482 15.6313L17.8658 15.7018C17.9431 15.7466 17.9999 15.8129 18.0333 15.8887C18.0847 16.0046 18.0814 16.1423 18.0129 16.2598C17.9371 16.3898 17.8005 16.4624 17.6602 16.4624C17.5903 16.4624 17.5195 16.4444 17.4547 16.4064L17.3427 16.3395L17.0642 16.1733Z" fill="white"/><path d="M17.8215 15.4275L17.7618 15.3914L17.5745 15.2795L17.02 14.9475C16.9468 14.9024 16.8927 14.8382 16.8603 14.7651C16.808 14.6464 16.8129 14.5046 16.8861 14.3861C16.9633 14.2607 17.0973 14.1917 17.2344 14.1917C17.3071 14.1917 17.3808 14.2111 17.4474 14.252L17.9937 14.579L18.181 14.6916L18.2327 14.7224C18.2419 14.7278 18.2499 14.7344 18.2583 14.7403C18.322 14.7844 18.3711 14.8428 18.4007 14.9095C18.4512 15.0253 18.4485 15.163 18.3796 15.2807C18.3038 15.4106 18.1671 15.4831 18.0267 15.4831C17.9691 15.4831 17.9115 15.4676 17.8566 15.4421C17.8449 15.4367 17.8326 15.4341 17.8215 15.4275Z" fill="white"/><path d="M16.9743 18.0654C16.8983 18.1952 16.7619 18.2677 16.6218 18.2677C16.5518 18.2677 16.481 18.2497 16.4162 18.2117L16.3077 18.1467L16.289 18.1355L16.1014 18.0231L15.9594 17.9381C15.886 17.8928 15.8325 17.829 15.8003 17.7557C15.7478 17.6369 15.7525 17.4955 15.8253 17.3768C15.9027 17.2516 16.0363 17.1824 16.1733 17.1824C16.2461 17.1824 16.32 17.2019 16.3866 17.2431L16.5207 17.3231L16.7085 17.4357L16.7133 17.4386L16.827 17.507C16.9047 17.552 16.9615 17.6186 16.9952 17.6939C17.0461 17.8098 17.0426 17.9473 16.9743 18.0654Z" fill="white"/><path d="M15.5894 11.1403C15.5894 10.7998 15.3131 10.5235 14.973 10.5235C14.6322 10.5235 14.3562 10.7998 14.3562 11.1403C14.3562 11.4811 14.6322 11.7571 14.973 11.7571C15.3131 11.757 15.5894 11.4811 15.5894 11.1403Z" fill="#EB0000"/></svg>

<svg class="color-immutable" width="30" height="30" viewBox="0 0 30 30" fill="none" xmlns="http://www.w3.org/2000/svg"><g clip-path="url(#a)"><path d="M30 0H0v30h30V0Z" fill="#237F52"/><path d="M25.5 3c.825 0 1.5.675 1.5 1.5v21c0 .825-.675 1.5-1.5 1.5h-21c-.825 0-1.5-.675-1.5-1.5v-21C3 3.675 3.675 3 4.5 3h21Zm0-.375h-21A1.877 1.877 0 0 0 2.625 4.5v21c0 1.034.841 1.875 1.875 1.875h21a1.877 1.877 0 0 0 1.875-1.875v-21A1.877 1.877 0 0 0 25.5 2.625Z" fill="#fff"/><path d="M20.979 15.183c-.181-.258-.395-.41-.395-.41l-.736-.437-1.189-.689a.56.56 0 0 0-.143-.02.328.328 0 0 0-.293.163c-.03.05-.049.144-.051.155-.056.253.104.552.324.689l.959.572.298.184-2.134 3.707c.506.315.548.305.559.31.201.107.399.218.62.218l2.006.007L24 21.53v-3.418l-1.734-1.021s-1.186-1.764-1.287-1.908Z" fill="#fff"/><path d="M23.642 21.567v.63a.25.25 0 0 1-.25.25H6.608a.25.25 0 0 1-.25-.25V9.607c0-.136.114-.25.25-.25h16.784a.25.25 0 0 1 .25.25v8.045l.358.21V9.608A.61.61 0 0 0 23.392 9H6.608A.61.61 0 0 0 6 9.608v12.588a.61.61 0 0 0 .608.608h16.784a.61.61 0 0 0 .608-.608v-.416l-.11-.065-.248-.148Z" fill="#fff"/><path d="M22.266 17.09s-1.186-1.762-1.287-1.907c-.181-.258-.395-.41-.395-.41l-.736-.437-1.189-.689a.56.56 0 0 0-.143-.02.328.328 0 0 0-.293.163c-.03.05-.049.144-.051.155-.056.253.104.552.324.689l.959.572.298.184-2.134 3.707c.506.315.548.305.559.31.201.107.399.218.62.218l2.006.007 2.838 1.686.358.212v-3.418l-.358-.21-1.376-.811ZM19.833 14.079l.305.175.704-1.23 1.417.817.856-1.484-2.64-1.512-2.267.67 1.435.83-.698 1.22-.002.003.89.51ZM16.787 19.346l.337.194-.337-.194Z" fill="#fff"/><path d="m18.829 15.08-.189-.113a.624.624 0 0 1-.483.716.624.624 0 0 1 .04.686.624.624 0 0 1-.502.305l.01.018a.626.626 0 0 1-.032.566.626.626 0 0 1-.505.306c.008.015.017.028.023.044a.629.629 0 0 1-.032.566.626.626 0 0 1-.853.222l-.105-.063-.29.506.876.507.337.194 2.329-4.084-.624-.377ZM11.297 11.32h-2.26v-.359h2.175l1.31-.663 1.441.383-.092.346-1.308-.348-1.266.64ZM17.55 12.183l-.797-.864h-.725v-.358h.882l.903.979-.263.243ZM10.963 12.328l-.134-.333 1.566-.63.746.298.756-.35.15.325-.896.415-.756-.303-1.432.578ZM14.188 16.4l-.633-1.725.937-1.208.171-1.329.356.046-.184 1.426-.875 1.128.564 1.54-.336.123Z" fill="#fff"/><path d="m17.341 16.591-.107-.063-.012-.007-.188-.113-.545-.327a.407.407 0 0 0-.562.134.409.409 0 0 0 .134.561l.554.332.188.113.026.015.101.06a.41.41 0 0 0 .579-.518.404.404 0 0 0-.168-.186ZM17.064 16.173l-.187-.112-.554-.332a.406.406 0 0 1 .214-.756c.073 0 .147.02.213.06l.547.327.187.113.264.158.118.07a.407.407 0 1 1-.411.705l-.112-.066-.279-.167ZM17.822 15.428l-.06-.037-.188-.111-.554-.332a.408.408 0 1 1 .427-.696l.547.327.187.113.052.03.025.018a.409.409 0 0 1 .143.17.41.41 0 0 1-.374.573.406.406 0 0 1-.17-.04c-.012-.006-.024-.009-.035-.015ZM16.974 18.065a.408.408 0 0 1-.558.147l-.108-.065-.019-.011-.188-.113-.142-.085a.408.408 0 1 1 .427-.695l.135.08.188.113.004.003.114.068a.408.408 0 0 1 .147.558Z" fill="#fff"/><path d="M15.59 11.14a.617.617 0 1 0-1.234 0 .617.617 0 0 0 1.233 0Z" fill="#EB0000"/></g><defs><clipPath id="a"><path fill="#fff" d="M0 0h30v30H0z"/></clipPath></defs></svg>
